luts/test.3dl
# Generated by Nuke for flame
# Dimensions 32x32x32
# Input bit depth 10
# Output bit depth 10
0 33 66 99 132 165 198 231 264 297 330 363 396 429 462 495 528 561 594 627 660 693 726 759 792 825 858 891 924 957 990 1023 
0 0 0
0 0 51
0 0 103
0 0 154
0 0 206
0 0 257
0 0 309
0 0 360
0 0 412
0 0 463
0 0 515
0 0 566
0 0 618
0 0 669
0 0 721
0 0 772
0 0 824
0 0 875
0 0 927
0 0 978
0 0 1023
0 0 1023
0 0 1023
0 0 1023
0 0 1023
0 0 1023
0 0 1023
0 0 1023
0 0 1023
0 0 1023
0 0 1023
0 0 1023
0 51 0
0 51 51
0 51 103
0 51 154
0 51 206
0 51 257
0 51 309
0 51 360
0 51 412
0 51 463
0 51 515
0 51 566
0 51 618
0 51 669
0 51 721
0 51 772
0 51 824
0 51 875
0 51 927
0 51 978
0 51 1023
0 51 1023
0 51 1023
0 51 1023
0 51 1023
0 51 1023
0 51 1023
0 51 1023
0 51 1023
0 51 1023
0 51 1023
0 51 1023
0 103 0
0 103 51
0 103 103
0 103 154
0 103 206
0 103 257
0 103 309
0 103 360
0 103 412
0 103 463
0 103 515
0 103 566
0 103 618
0 103 669
0 103 721
0 103 772
0 103 824
0 103 875
0 103 927
0 103 978
0 103 1023
0 103 1023
0 103 1023
0 103 1023
0 103 1023
0 103 1023
0 103 1023
0 103 1023
0 103 1023
0 103 1023
0 103 1023
0 103 1023
0 154 0
0 154 51
0 154 103
0 154 154
0 154 206
0 154 257
0 154 309
0 154 360
0 154 412
0 154 463
0 154 515
0 154 566
0 154 618
0 154 669
0 154 721
0 154 772
0 154 824
0 154 875
0 154 927
0 154 978
0 154 1023
0 154 1023
0 154 1023
0 154 1023
0 154 1023
0 154 1023
0 154 1023
0 154 1023
0 154 1023
0 154 1023
0 154 1023
0 154 1023
0 206 0
0 206 51
0 206 103
0 206 154
0 206 206
0 206 257
0 206 309
0 206 360
0 206 412
0 206 463
0 206 515
0 206 566
0 206 618
0 206 669
0 206 721
0 206 772
0 206 824
0 206 875
0 206 927
0 206 978
0 206 1023
0 206 1023
0 206 1023
0 206 1023
0 206 1023
0 206 1023
0 206 1023
0 206 1023
0 206 1023
0 206 1023
0 206 1023
0 206 1023
0 257 0
0 257 51
0 257 103
0 257 154
0 257 206
0 257 257
0 257 309
0 257 360
0 257 412
0 257 463
0 257 515
0 257 566
0 257 618
0 257 669
0 257 721
0 257 772
0 257 824
0 257 875
0 257 927
0 257 978
0 257 1023
0 257 1023
0 257 1023
0 257 1023
0 257 1023
0 257 1023
0 257 1023
0 257 1023
0 257 1023
0 257 1023
0 257 1023
0 257 1023
0 309 0
0 309 51
0 309 103
0 309 154
0 309 206
0 309 257
0 309 309
0 309 360
0 309 412
0 309 463
0 309 515
0 309 566
0 309 618
0 309 669
0 309 721
0 309 772
0 309 824
0 309 875
0 309 927
0 309 978
0 309 1023
0 309 1023
0 309 1023
0 309 1023
0 309 1023
0 309 1023
0 309 1023
0 309 1023
0 309 1023
0 309 1023
0 309 1023
0 309 1023
0 360 0
0 360 51
0 360 103
0 360 154
0 360 206
0 360 257
0 360 309
0 360 360
0 360 412
0 360 463
0 360 515
0 360 566
0 360 618
0 360 669
0 360 721
0 360 772
0 360 824
0 360 875
0 360 927
0 360 978
0 360 1023
0 360 1023
0 360 1023
0 360 1023
0 360 1023
0 360 1023
0 360 1023
0 360 1023
0 360 1023
0 360 1023
0 360 1023
0 360 1023
0 412 0
0 412 51
0 412 103
0 412 154
0 412 206
0 412 257
0 412 309
0 412 360
0 412 412
0 412 463
0 412 515
0 412 566
0 412 618
0 412 669
0 412 721
0 412 772
0 412 824
0 412 875
0 412 927
0 412 978
0 412 1023
0 412 1023
0 412 1023
0 412 1023
0 412 1023
0 412 1023
0 412 1023
0 412 1023
0 412 1023
0 412 1023
0 412 1023
0 412 1023
0 463 0
0 463 51
0 463 103
0 463 154
0 463 206
0 463 257
0 463 309
0 463 360
0 463 412
0 463 463
0 463 515
0 463 566
0 463 618
0 463 669
0 463 721
0 463 772
0 463 824
0 463 875
0 463 927
0 463 978
0 463 1023
0 463 1023
0 463 1023
0 463 1023
0 463 1023
0 463 1023
0 463 1023
0 463 1023
0 463 1023
0 463 1023
0 463 1023
0 463 1023
0 515 0
0 515 51
0 515 103
0 515 154
0 515 206
0 515 257
0 515 309
0 515 360
0 515 412
0 515 463
0 515 515
0 515 566
0 515 618
0 515 669
0 515 721
0 515 772
0 515 824
0 515 875
0 515 927
0 515 978
0 515 1023
0 515 1023
0 515 1023
0 515 1023
0 515 1023
0 515 1023
0 515 1023
0 515 1023
0 515 1023
0 515 1023
0 515 1023
0 515 1023
0 566 0
0 566 51
0 566 103
0 566 154
0 566 206
0 566 257
0 566 309
0 566 360
0 566 412
0 566 463
0 566 515
0 566 566
0 566 618
0 566 669
0 566 721
0 566 772
0 566 824
0 566 875
0 566 927
0 566 978
0 566 1023
0 566 1023
0 566 1023
0 566 1023
0 566 1023
0 566 1023
0 566 1023
0 566 1023
0 566 1023
0 566 1023
0 566 1023
0 566 1023
0 618 0
0 618 51
0 618 103
0 618 154
0 618 206
0 618 257
0 618 309
0 618 360
0 618 412
0 618 463
0 618 515
0 618 566
0 618 618
0 618 669
0 618 721
0 618 772
0 618 824
0 618 875
0 618 927
0 618 978
0 618 1023
0 618 1023
0 618 1023
0 618 1023
0 618 1023
0 618 1023
0 618 1023
0 618 1023
0 618 1023
0 618 1023
0 618 1023
0 618 1023
0 669 0
0 669 51
0 669 103
0 669 154
0 669 206
0 669 257
0 669 309
0 669 360
0 669 412
0 669 463
0 669 515
0 669 566
0 669 618
0 669 669
0 669 721
0 669 772
0 669 824
0 669 875
0 669 927
0 669 978
0 669 1023
0 669 1023
0 669 1023
0 669 1023
0 669 1023
0 669 1023
0 669 1023
0 669 1023
0 669 1023
0 669 1023
0 669 1023
0 669 1023
0 721 0
0 721 51
0 721 103
0 721 154
0 721 206
0 721 257
0 721 309
0 721 360
0 721 412
0 721 463
0 721 515
0 721 566
0 721 618
0 721 669
0 721 721
0 721 772
0 721 824
0 721 875
0 721 927
0 721 978
0 721 1023
0 721 1023
0 721 1023
0 721 1023
0 721 1023
0 721 1023
0 721 1023
0 721 1023
0 721 1023
0 721 1023
0 721 1023
0 721 1023
0 772 0
0 772 51
0 772 103
0 772 154
0 772 206
0 772 257
0 772 309
0 772 360
0 772 412
0 772 463
0 772 515
0 772 566
0 772 618
0 772 669
0 772 721
0 772 772
0 772 824
0 772 875
0 772 927
0 772 978
0 772 1023
0 772 1023
0 772 1023
0 772 1023
0 772 1023
0 772 1023
0 772 1023
0 772 1023
0 772 1023
0 772 1023
0 772 1023
0 772 1023
0 824 0
0 824 51
0 824 103
0 824 154
0 824 206
0 824 257
0 824 309
0 824 360
0 824 412
0 824 463
0 824 515
0 824 566
0 824 618
0 824 669
0 824 721
0 824 772
0 824 824
0 824 875
0 824 927
0 824 978
0 824 1023
0 824 1023
0 824 1023
0 824 1023
0 824 1023
0 824 1023
0 824 1023
0 824 1023
0 824 1023
0 824 1023
0 824 1023
0 824 1023
0 875 0
0 875 51
0 875 103
0 875 154
0 875 206
0 875 257
0 875 309
0 875 360
0 875 412
0 875 463
0 875 515
0 875 566
0 875 618
0 875 669
0 875 721
0 875 772
0 875 824
0 875 875
0 875 927
0 875 978
0 875 1023
0 875 1023
0 875 1023
0 875 1023
0 875 1023
0 875 1023
0 875 1023
0 875 1023
0 875 1023
0 875 1023
0 875 1023
0 875 1023
0 927 0
0 927 51
0 927 103
0 927 154
0 927 206
0 927 257
0 927 309
0 927 360
0 927 412
0 927 463
0 927 515
0 927 566
0 927 618
0 927 669
0 927 721
0 927 772
0 927 824
0 927 875
0 927 927
0 927 978
0 927 1023
0 927 1023
0 927 1023
0 927 1023
0 927 1023
0 927 1023
0 927 1023
0 927 1023
0 927 1023
0 927 1023
0 927 1023
0 927 1023
0 978 0
0 978 51
0 978 103
0 978 154
0 978 206
0 978 257
0 978 309
0 978 360
0 978 412
0 978 463
0 978 515
0 978 566
0 978 618
0 978 669
0 978 721
0 978 772
0 978 824
0 978 875
0 978 927
0 978 978
0 978 1023
0 978 1023
0 978 1023
0 978 1023
0 978 1023
0 978 1023
0 978 1023
0 978 1023
0 978 1023
0 978 1023
0 978 1023
0 978 1023
0 1023 0
0 1023 51
0 1023 103
0 1023 154
0 1023 206
0 1023 257
0 1023 309
0 1023 360
0 1023 412
0 1023 463
0 1023 515
0 1023 566
0 1023 618
0 1023 669
0 1023 721
0 1023 772
0 1023 824
0 1023 875
0 1023 927
0 1023 978
0 1023 1023
0 1023 1023
0 1023 1023
0 1023 1023
0 1023 1023
0 1023 1023
0 1023 1023
0 1023 1023
0 1023 1023
0 1023 1023
0 1023 1023
0 1023 1023
0 1023 0
0 1023 51
0 1023 103
0 1023 154
0 1023 206
0 1023 257
0 1023 309
0 1023 360
0 1023 412
0 1023 463
0 1023 515
0 1023 566
0 1023 618
0 1023 669
0 1023 721
0 1023 772
0 1023 824
0 1023 875
0 1023 927
0 1023 978
0 1023 1023
0 1023 1023
0 1023 1023
0 1023 1023
0 1023 1023
0 1023 1023
0 1023 1023
0 1023 1023
0 1023 1023
0 1023 1023
0 1023 1023
0 1023 1023
0 1023 0
0 1023 51
0 1023 103
0 1023 154
0 1023 206
0 1023 257
0 1023 309
0 1023 360
0 1023 412
0 1023 463
0 1023 515
0 1023 566
0 1023 618
0 1023 669
0 1023 721
0 1023 772
0 1023 824
0 1023 875
0 1023 927
0 1023 978
0 1023 1023
0 1023 1023
0 1023 1023
0 1023 1023
0 1023 1023
0 1023 1023
0 1023 1023
0 1023 1023
0 1023 1023
0 1023 1023
0 1023 1023
0 1023 1023
0 1023 0
0 1023 51
0 1023 103
0 1023 154
0 1023 206
0 1023 257
0 1023 309
0 1023 360
0 1023 412
0 1023 463
0 1023 515
0 1023 566
0 1023 618
0 1023 669
0 1023 721
0 1023 772
0 1023 824
0 1023 875
0 1023 927
0 1023 978
0 1023 1023
0 1023 1023
0 1023 1023
0 1023 1023
0 1023 1023
0 1023 1023
0 1023 1023
0 1023 1023
0 1023 1023
0 1023 1023
0 1023 1023
0 1023 1023
0 1023 0
0 1023 51
0 1023 103
0 1023 154
0 1023 206
0 1023 257
0 1023 309
0 1023 360
0 1023 412
0 1023 463
0 1023 515
0 1023 566
0 1023 618
0 1023 669
0 1023 721
0 1023 772
0 1023 824
0 1023 875
0 1023 927
0 1023 978
0 1023 1023
0 1023 1023
0 1023 1023
0 1023 1023
0 1023 1023
0 1023 1023
0 1023 1023
0 1023 1023
0 1023 1023
0 1023 1023
0 1023 1023
0 1023 1023
0 1023 0
0 1023 51
0 1023 103
0 1023 154
0 1023 206
0 1023 257
0 1023 309
0 1023 360
0 1023 412
0 1023 463
0 1023 515
0 1023 566
0 1023 618
0 1023 669
0 1023 721
0 1023 772
0 1023 824
0 1023 875
0 1023 927
0 1023 978
0 1023 1023
0 1023 1023
0 1023 1023
0 1023 1023
0 1023 1023
0 1023 1023
0 1023 1023
0 1023 1023
0 1023 1023
0 1023 1023
0 1023 1023
0 1023 1023
0 1023 0
0 1023 51
0 1023 103
0 1023 154
0 1023 206
0 1023 257
0 1023 309
0 1023 360
0 1023 412
0 1023 463
0 1023 515
0 1023 566
0 1023 618
0 1023 669
0 1023 721
0 1023 772
0 1023 824
0 1023 875
0 1023 927
0 1023 978
0 1023 1023
0 1023 1023
0 1023 1023
0 1023 1023
0 1023 1023
0 1023 1023
0 1023 1023
0 1023 1023
0 1023 1023
0 1023 1023
0 1023 1023
0 1023 1023
0 1023 0
0 1023 51
0 1023 103
0 1023 154
0 1023 206
0 1023 257
0 1023 309
0 1023 360
0 1023 412
0 1023 463
0 1023 515
0 1023 566
0 1023 618
0 1023 669
0 1023 721
0 1023 772
0 1023 824
0 1023 875
0 1023 927
0 1023 978
0 1023 1023
0 1023 1023
0 1023 1023
0 1023 1023
0 1023 1023
0 1023 1023
0 1023 1023
0 1023 1023
0 1023 1023
0 1023 1023
0 1023 1023
0 1023 1023
0 1023 0
0 1023 51
0 1023 103
0 1023 154
